X: 1925
T: Arran Ceilidh, The
R: reel
M: 4/4
K: Amajor
af|eA A2 cABc|EFAc BABc|ec c2 fece|fefg a3f|
eA A2 cABc|EFAc BABc|ec c2 fece|fefg a2 ga||
f3a fecf|efec BABc|efec BABc|EFAc BAag|
f3a fecf|efec BABc|ec c2 fece|fefg a3g|
f3a fecf|efec BABc|E3c BABc|EA A2 cAag|
f3a fecf|efec BABc|ec c2 fece|fefg a3f||

